images/STAT.svg

<svg height="250" viewBox="0 0 250 250" width="250" xmlns="http://www.w3.org/2000/svg"><path d="m39.859375 184.332031 9.363281-5.515625v-108.472656l-9.363281-5.476562zm0 0" fill="#b5b5b6"/><path d="m238.859375 67.585938-2.320313-4.117188-99.5 58.394531v116.707031h9.363282v-111.230468l87.816406-51.519532v102.996094l9.324219 5.515625v-119.464843zm0 0" fill="#b5b5b6"/><path d="m243.542969 172.0625c-1.417969-.679688-2.992188-1.078125-4.683594-1.078125s-3.265625.398437-4.679687 1.078125c-.550782.28125-1.101563.597656-1.613282.960938l-10.191406-5.996094-9.363281-5.476563-61.925781-36.332031-9.363282-5.472656-66.609375-39.050782-9.363281-5.476562-10.230469-5.992188c0-.320312.078125-.601562.078125-.921874 0-.320313-.078125-.640626-.078125-.917969l69.246094-40.726563 10.621094-6.238281c1.808593 1.28125 3.972656 2.039063 6.296875 2.039063 2.320312 0 4.523437-.757813 6.292968-2.039063l79.90625 46.882813c0 .320312-.078124.601562-.078124.921874 0 .320313.078124.636719.078124.917969.277344 3.398438 2.007813 6.394531 4.644532 8.273438.511718.359375 1.0625.679687 1.613281.917969 1.414063.679687 2.988281 1.082031 4.679687 1.082031 1.691407 0 3.265626-.402344 4.683594-1.082031 3.738282-1.796876 6.371094-5.632813 6.371094-10.109376 0-6.195312-4.957031-11.230468-11.054688-11.230468-2.359374 0-4.523437.757812-6.292968 2.035156l-73.535156-43.164062-6.332032-3.71875c0-.316407.078125-.597657.078125-.917969 0-6.195313-4.957031-11.230469-11.054687-11.230469-6.101563 0-11.058594 5.035156-11.058594 11.230469 0 .320312.078125.640625.078125.917969l-79.828125 46.882812c-1.808594-1.277344-3.972656-2.035156-6.292969-2.035156-6.097656 0-11.054687 5.035156-11.054687 11.230468 0 4.476563 2.59375 8.351563 6.371094 10.109376 1.417968.679687 2.992187 1.082031 4.683593 1.082031 1.691407 0 3.265625-.402344 4.683594-1.082031.550781-.277344 1.101563-.597657 1.609375-.957032l10.191406 5.996094 9.363282 5.472656 66.609374 39.050782 9.363282 5.476562 61.925781 36.328125 9.363281 5.476563 10.230469 5.996093c0 .320313-.078125.597657-.078125.917969s.078125.640625.078125.917969l-79.277344 46.484375c-1.925781-1.519532-4.289062-2.476563-6.921875-2.476563-2.636718 0-5.039062.957031-6.925781 2.476563l-85.53125-50.160156-9.367187-5.476563-17.9375-10.511719 3.894531-6.914062-25.7695315-.277344 13.2578125 22.460938 3.933594-6.996094 22.582031 13.230468 90.609375 53.15625s-.039062.320313-.039062.480469c0 6.316407 5.035156 11.433594 11.253906 11.433594 6.214844 0 11.25-5.117187 11.25-11.433594 0-.160156-.039063-.320312-.039063-.480469l79.632813-46.722656c1.808594 1.28125 3.972656 2.039063 6.292968 2.039063 6.097657 0 11.054688-5.035157 11.054688-11.230469 0-4.476562-2.59375-8.351562-6.371094-10.113281zm0 0" fill="#28333b"/></svg>

<svg xmlns="http://www.w3.org/2000/svg" xmlns:xlink="http://www.w3.org/1999/xlink" width="250px" height="250px" viewBox="0 0 250 250" version="1.1">
<g id="surface1">
<path style=" stroke:none;fill-rule:nonzero;fill:rgb(70.980394%,70.980394%,71.372551%);fill-opacity:1;" d="M 39.859375 184.332031 L 49.222656 178.816406 L 49.222656 70.34375 L 39.859375 64.867188 Z M 39.859375 184.332031 "/>
<path style=" stroke:none;fill-rule:nonzero;fill:rgb(70.980394%,70.980394%,71.372551%);fill-opacity:1;" d="M 238.859375 67.585938 L 236.539062 63.46875 L 137.039062 121.863281 L 137.039062 238.570312 L 146.402344 238.570312 L 146.402344 127.339844 L 234.21875 75.820312 L 234.21875 178.816406 L 243.542969 184.332031 L 243.542969 64.867188 Z M 238.859375 67.585938 "/>
<path style=" stroke:none;fill-rule:nonzero;fill:rgb(15.686275%,20%,23.137255%);fill-opacity:1;" d="M 243.542969 172.0625 C 242.125 171.382812 240.550781 170.984375 238.859375 170.984375 C 237.167969 170.984375 235.59375 171.382812 234.179688 172.0625 C 233.628906 172.34375 233.078125 172.660156 232.566406 173.023438 L 222.375 167.027344 L 213.011719 161.550781 L 151.085938 125.21875 L 141.722656 119.746094 L 75.113281 80.695312 L 65.75 75.21875 L 55.519531 69.226562 C 55.519531 68.90625 55.597656 68.625 55.597656 68.304688 C 55.597656 67.984375 55.519531 67.664062 55.519531 67.386719 L 124.765625 26.660156 L 135.386719 20.421875 C 137.195312 21.703125 139.359375 22.460938 141.683594 22.460938 C 144.003906 22.460938 146.207031 21.703125 147.976562 20.421875 L 227.882812 67.304688 C 227.882812 67.625 227.804688 67.90625 227.804688 68.226562 C 227.804688 68.546875 227.882812 68.863281 227.882812 69.144531 C 228.160156 72.542969 229.890625 75.539062 232.527344 77.417969 C 233.039062 77.777344 233.589844 78.097656 234.140625 78.335938 C 235.554688 79.015625 237.128906 79.417969 238.820312 79.417969 C 240.511719 79.417969 242.085938 79.015625 243.503906 78.335938 C 247.242188 76.539062 249.875 72.703125 249.875 68.226562 C 249.875 62.03125 244.917969 56.996094 238.820312 56.996094 C 236.460938 56.996094 234.296875 57.753906 232.527344 59.03125 L 158.992188 15.867188 L 152.660156 12.148438 C 152.660156 11.832031 152.738281 11.550781 152.738281 11.230469 C 152.738281 5.035156 147.78125 0 141.683594 0 C 135.582031 0 130.625 5.035156 130.625 11.230469 C 130.625 11.550781 130.703125 11.871094 130.703125 12.148438 L 50.875 59.03125 C 49.066406 57.753906 46.902344 56.996094 44.582031 56.996094 C 38.484375 56.996094 33.527344 62.03125 33.527344 68.226562 C 33.527344 72.703125 36.121094 76.578125 39.898438 78.335938 C 41.316406 79.015625 42.890625 79.417969 44.582031 79.417969 C 46.273438 79.417969 47.847656 79.015625 49.265625 78.335938 C 49.816406 78.058594 50.367188 77.738281 50.875 77.378906 L 61.066406 83.375 L 70.429688 88.847656 L 137.039062 127.898438 L 146.402344 133.375 L 208.328125 169.703125 L 217.691406 175.179688 L 227.921875 181.175781 C 227.921875 181.496094 227.84375 181.773438 227.84375 182.09375 C 227.84375 182.414062 227.921875 182.734375 227.921875 183.011719 L 148.644531 229.496094 C 146.71875 227.976562 144.355469 227.019531 141.722656 227.019531 C 139.085938 227.019531 136.683594 227.976562 134.796875 229.496094 L 49.265625 179.335938 L 39.898438 173.859375 L 21.960938 163.347656 L 25.855469 156.433594 L 0.0859375 156.15625 L 13.34375 178.617188 L 17.277344 171.621094 L 39.859375 184.851562 L 130.46875 238.007812 C 130.46875 238.007812 130.429688 238.328125 130.429688 238.488281 C 130.429688 244.804688 135.464844 249.921875 141.683594 249.921875 C 147.898438 249.921875 152.933594 244.804688 152.933594 238.488281 C 152.933594 238.328125 152.894531 238.167969 152.894531 238.007812 L 232.527344 191.285156 C 234.335938 192.566406 236.5 193.324219 238.820312 193.324219 C 244.917969 193.324219 249.875 188.289062 249.875 182.09375 C 249.875 177.617188 247.28125 173.742188 243.503906 171.980469 Z M 243.542969 172.0625 "/>
</g>
</svg>
